X:3388
L:1/16
M:4/4
K:C
[M:6/8][K:Amin]"^Englished" a2"^Grace O'Malley""^the pirate queen of Connemara" c2d2e2e2d2 e2e2f2 e2 e2ua2 f2 E2z2a2b2e2!p! e2d2a2 a2e2 e2 ud2e2"^Grace O Malley"[Q:1/8=80] .z4 |: 
 cd | e2>f2e2 d2B2AG | E2A2A2 A4 Bc | d2B2de d2B2A2 | G2E2^F2 G4 =fa |"^5" g2f2e2 dcBcdB | 
 defgfe !fermata!a4 ba |"^7" gfefge edcBAG | A4 A2 A4 :| (3efg |"^9" a2e2c2 a2e2c2 | 
 A4 A2 A4 (3def | g2d2B2 g2d2B2 | G4 G2 G4 AB |"^13" c4 E2 E6 | d4 E2 E6 | defgef !fermata!a4 ba | 
 gfefge edcBAG | A4 A2 A4 :|

